src/main/webapp/resources/showcase/images/whouses/ebay.svg

<?xml version="1.0" encoding="UTF-8"?>
<svg width="85px" height="35px" viewBox="0 0 85 35" version="1.1" xmlns="http://www.w3.org/2000/svg" xmlns:xlink="http://www.w3.org/1999/xlink">
    <defs></defs>
    <g id="Page-1" stroke="none" stroke-width="1" fill="none" fill-rule="evenodd">
        <g id="ebay" fill="#FFFFFF" fill-rule="nonzero">
            <path d="M11.0121603,7.45404043 C5.02087038,7.45404043 0.0283324748,9.99584643 0.0283324748,17.6643592 C0.0283324748,23.7395095 3.38545282,27.5652742 11.166862,27.5652742 C20.3259449,27.5652742 20.9130753,21.5319039 20.9130753,21.5319039 L16.4750675,21.5319039 C16.4750675,21.5319039 15.5235214,24.7806419 10.8961339,24.7806419 C7.12725312,24.7806419 4.41652633,22.2346525 4.41652633,18.6660779 L21.3771807,18.6660779 L21.3771807,16.4267447 C21.3771807,12.8963026 19.1359942,7.45404043 11.0121603,7.45404043 Z M10.8574583,10.3160236 C14.4450425,10.3160236 16.8908286,12.5138536 16.8908286,15.8079373 L4.51468462,15.8079373 C4.51468462,12.3108645 7.70705852,10.3160236 10.8574583,10.3160236 Z" id="e"></path>
            <path d="M21.3740326,0.0283539572 L21.3740326,23.7141772 C21.3740326,25.0586596 21.2780741,26.9464671 21.2780741,26.9464671 L25.5109984,26.9464671 C25.5109984,26.9464671 25.6629325,25.5906171 25.6629325,24.3515021 C25.6629325,24.3515021 27.7542705,27.6232872 33.4407737,27.6232872 C39.4288905,27.6232872 43.4963898,23.4659333 43.4963898,17.5096572 C43.4963898,11.9686194 39.7602602,7.5120535 33.450441,7.5120535 C27.5417411,7.5120535 25.705683,10.7027781 25.705683,10.7027781 L25.705683,0.0283539572 L21.3740326,0.0283539572 Z M32.3578595,10.4417188 C36.4242567,10.4417188 39.0100388,13.4596894 39.0100388,17.5096572 C39.0100388,21.8525126 36.0235468,24.693622 32.3868672,24.693622 C28.0468085,24.693622 25.705683,21.3049225 25.705683,17.5483327 C25.705683,14.0479231 27.8064436,10.4417188 32.3578595,10.4417188 Z" id="b"></path>
            <path d="M54.0161117,7.45404043 C45.0026692,7.45404043 44.4246012,12.3893603 44.4246012,13.178007 L48.9109522,13.178007 C48.9109522,13.178007 49.1462152,10.2966858 53.7067088,10.2966858 C56.6701913,10.2966858 58.9665712,11.6531189 58.9665712,14.2609195 L58.9665712,15.1891303 L53.7067088,15.1891303 C46.7238682,15.1891303 43.0322842,17.2318871 43.0322842,21.3772022 C43.0322842,25.4567877 46.4431897,27.6764661 51.0526065,27.6764661 C57.3345258,27.6764661 59.3581577,24.2053446 59.3581577,24.2053446 C59.3581577,25.5859667 59.4646003,26.9464671 59.4646003,26.9464671 L63.4529222,26.9464671 C63.4529222,26.9464671 63.2982193,25.2600844 63.2982193,24.1811723 L63.2982193,14.8555546 C63.2982193,8.7408747 58.3660915,7.45404043 54.0161117,7.45404043 Z M58.9665712,17.9737625 L58.9665712,19.211377 C58.9665712,20.8255635 57.9705043,24.8386549 52.106513,24.8386549 C48.8954113,24.8386549 47.518638,23.2360774 47.518638,21.3772022 C47.518638,17.9955415 52.1550423,17.9737625 58.9665712,17.9737625 Z" id="a"></path>
            <polygon id="y" points="60.8823862 8.22832895 65.9295332 8.22832895 73.1728903 22.73991 80.3996753 8.22832895 84.9716667 8.22832895 71.8082012 34.0635205 67.0124445 34.0635205 70.8109273 26.8616085"></polygon>
        </g>
    </g>
</svg>

<svg width="85" height="35" xmlns="http://www.w3.org/2000/svg"><g fill="#FFF"><path d="M11.012 7.454C5.021 7.454.028 9.996.028 17.664c0 6.076 3.357 9.901 11.139 9.901 9.159 0 9.746-6.033 9.746-6.033h-4.438s-.951 3.249-5.579 3.249c-3.769 0-6.48-2.546-6.48-6.115h16.961v-2.24c0-3.53-2.241-8.972-10.365-8.972zm-.155 2.862c3.588 0 6.034 2.198 6.034 5.492H4.515c0-3.497 3.192-5.492 6.342-5.492z"/><path d="M21.374.028v23.686c0 1.345-.096 3.232-.096 3.232h4.233s.152-1.355.152-2.594c0 0 2.091 3.271 7.778 3.271 5.988 0 10.055-4.157 10.055-10.113 0-5.541-3.736-9.998-10.046-9.998-5.908 0-7.744 3.19-7.744 3.19V.029h-4.332zm10.984 10.414c4.066 0 6.652 3.018 6.652 7.068 0 4.343-2.986 7.184-6.623 7.184-4.34 0-6.681-3.39-6.681-7.146 0-3.5 2.1-7.106 6.652-7.106z"/><path d="M54.016 7.454c-9.013 0-9.591 4.935-9.591 5.724h4.486s.235-2.881 4.796-2.881c2.963 0 5.26 1.356 5.26 3.964v.928h-5.26c-6.983 0-10.675 2.043-10.675 6.188 0 4.08 3.411 6.3 8.02 6.3 6.283 0 8.306-3.472 8.306-3.472 0 1.381.107 2.741.107 2.741h3.988s-.155-1.686-.155-2.765v-9.325c0-6.115-4.932-7.402-9.282-7.402zm4.95 10.52v1.237c0 1.615-.995 5.628-6.86 5.628-3.21 0-4.587-1.603-4.587-3.462 0-3.381 4.636-3.403 11.448-3.403z"/><path d="M60.882 8.228h5.048l7.243 14.512L80.4 8.228h4.572L71.808 34.064h-4.796l3.799-7.202z"/></g></svg>
